icon-themes/sifr_svg/cmd/lc_grafred.svg

<svg viewBox="0 0 24 24" xmlns="http://www.w3.org/2000/svg"><path d="m5.4160156 7.0605469c-.2326208-.0478405-.536762.0174191-.9101562.2578125l-2.6328125 1.6953125c-.5924072.3594898-.8730469.5751178-.8730469.9453125v7.5410156c0 .831.669 1.5 1.5 1.5s1.5-.669 1.5-1.5v-7.5l1.6386719-1.2265625c.5414971-.417908.4752062-1.5693691-.2226563-1.7128906zm-5.4160156 13.9394531v3h24v-3z" fill="#a33e03"/><path d="m14.5 1c-.831 0-1.5.669-1.5 1.5v8c0 .831.669 1.5 1.5 1.5s1.5-.669 1.5-1.5v-8c0-.831-.669-1.5-1.5-1.5zm-2.5 3.3417969-7.6054688 5.46875c-.436271.3135651-.5244059.8989411-.1992187 1.3144531l8.2187495 10.501953c.325187.415511.936776.495206 1.373047.181641l7.81836-5.617188c.436271-.313565.524405-.900896.199219-1.316406l-4.804688-6.1386719v1.7636719c0 1.385-1.115 2.5-2.5 2.5s-2.5-1.115-2.5-2.5z" fill="#555753"/></svg>

<svg xmlns="http://www.w3.org/2000/svg" viewBox="0 0 24 24">
  <path
     style="fill:#A33E03"
     d="M 5.4160156 7.0605469 C 5.1833948 7.0127064 4.8792536 7.077966 4.5058594 7.3183594 L 1.8730469 9.0136719 C 1.2806397 9.3731617 1 9.5887897 1 9.9589844 L 1 17.5 C 1 18.331 1.669 19 2.5 19 C 3.331 19 4 18.331 4 17.5 L 4 10 L 5.6386719 8.7734375 C 6.180169 8.3555295 6.1138781 7.2040684 5.4160156 7.0605469 z M 0 21 L 0 24 L 24 24 L 24 21 L 0 21 z "
     />
  <path
     style="fill:#555753"
     d="M 14.5,1 C 13.669,1 13,1.669 13,2.5 v 8 c 0,0.831 0.669,1.5 1.5,1.5 0.831,0 1.5,-0.669 1.5,-1.5 v -8 C 16,1.669 15.331,1 14.5,1 Z M 12,4.3417969 4.3945312,9.8105469 C 3.9582602,10.124112 3.8701253,10.709488 4.1953125,11.125 l 8.2187495,10.501953 c 0.325187,0.415511 0.936776,0.495206 1.373047,0.181641 l 7.81836,-5.617188 C 22.04174,15.877841 22.129874,15.29051 21.804688,14.875 L 17,8.7363281 V 10.5 C 17,11.885 15.885,13 14.5,13 13.115,13 12,11.885 12,10.5 Z"
     />
</svg>
